packages/ui/src/lib/icons/svg/drag-square.svg

<svg xmlns="http://www.w3.org/2000/svg" fill="none" viewBox="0 0 16 16" width="100%" height="100%"><path fill="currentColor" d="M3 4a1 1 0 1 1 2 0 1 1 0 0 1-2 0m0 4a1 1 0 1 1 2 0 1 1 0 0 1-2 0m0 4a1 1 0 1 1 2 0 1 1 0 0 1-2 0m4-8a1 1 0 1 1 2 0 1 1 0 0 1-2 0m0 4a1 1 0 1 1 2 0 1 1 0 0 1-2 0m0 4a1 1 0 1 1 2 0 1 1 0 0 1-2 0m4-8a1 1 0 1 1 2 0 1 1 0 0 1-2 0m0 4a1 1 0 1 1 2 0 1 1 0 0 1-2 0m0 4a1 1 0 1 1 2 0 1 1 0 0 1-2 0" vector-effect="non-scaling-stroke"/></svg>

<svg xmlns="http://www.w3.org/2000/svg" width="100%" height="100%" fill="none" viewBox="0 0 16 16"><path fill="currentColor" d="M3 4a1 1 0 1 1 2 0 1 1 0 0 1-2 0M3 8a1 1 0 1 1 2 0 1 1 0 0 1-2 0M3 12a1 1 0 1 1 2 0 1 1 0 0 1-2 0M7 4a1 1 0 1 1 2 0 1 1 0 0 1-2 0M7 8a1 1 0 1 1 2 0 1 1 0 0 1-2 0M7 12a1 1 0 1 1 2 0 1 1 0 0 1-2 0M11 4a1 1 0 1 1 2 0 1 1 0 0 1-2 0M11 8a1 1 0 1 1 2 0 1 1 0 0 1-2 0M11 12a1 1 0 1 1 2 0 1 1 0 0 1-2 0"/></svg>
